share/.local/share/icons/Papirus-Nordic/32x32/apps/mame.svg

<svg width="32" height="32" version="1.1" xmlns="http://www.w3.org/2000/svg">
 <path d="m21 7-19 19h8.0000004l8-8v8l8-8v8l4-4v-14.9l-9 9.9z" style="fill-rule:evenodd;opacity:.2"/>
 <path d="m21 6-19 19h8l8-8v8l8-8v8l4-4v-14l-9 9z" style="fill-rule:evenodd;fill:#4cade9;stop-color:#000000"/>
 <path d="m21 6-19 19h1l18-18zm9 1-9 9v1l9-9z" style="fill-rule:evenodd;fill:#ffffff;opacity:.2"/>
</svg>

<svg xmlns="http://www.w3.org/2000/svg" width="32" height="32" version="1.1">
 <path style="opacity:0.2;fill-rule:evenodd" d="M 21,7 1.9999996,26 H 10 l 8,-8 v 8 l 8,-8 v 8 l 4,-4 V 7.1 L 21,17 Z"/>
 <path style="fill:#2b87d8;fill-rule:evenodd" d="M 21,6 2,25 h 8 l 8,-8 v 8 l 8,-8 v 8 l 4,-4 V 7 l -9,9 z"/>
 <path style="opacity:0.2;fill:#ffffff;fill-rule:evenodd" d="M 21,6 2,25 H 3 L 21,7 Z m 9,1 -9,9 v 1 l 9,-9 z"/>
</svg>
